icon-themes/elementary_svg/cmd/sc_printdefault.svg

<svg height="16" width="16" xmlns="http://www.w3.org/2000/svg" xmlns:xlink="http://www.w3.org/1999/xlink"><linearGradient id="a" gradientUnits="userSpaceOnUse" x1="7.966" x2="8.197" y1=".937" y2="3.988"><stop offset="0" stop-color="#9cde4a"/><stop offset="1" stop-color="#6fae20"/></linearGradient><path d="m2.868 14.5c.008.36.03.914.342.99 3.3.02 6.28.003 9.58.01.34.015.353-.622.342-1z" fill="#505050" stroke="#565656" stroke-linecap="square"/><g stroke-linecap="round"><path d="m.647 6.556.748-3.05 13.216.003.716 3.062z" fill="#4f4f4f" fill-rule="evenodd"/><path d="m1.225 6.517h13.55c.402 0 .725.348.725.78v6.203h-15v-6.203c0-.432.323-.78.725-.78z" fill="#4f4f4f"/><path d="m1.225 6.517h13.55c.402 0 .725.348.725.78v6.203h-15v-6.203c0-.432.323-.78.725-.78z" fill="none" opacity=".71" stroke="#393939" stroke-linejoin="round"/><path d="m12 8h2v2h-2z" fill="#0cceff"/><path d="m.647 6.556.748-3.05 13.216.003.716 3.062z" fill="none" opacity=".7" stroke="#393939" stroke-linecap="butt"/></g><path d="m13 11v3.506c0 .274-.07.494-.156.494h-9.688c-.086 0-.156-.22-.156-.494v-3.506z" fill="#e9e9e9"/><path d="m3.483.498 9.027.002v4.856h-9.027z" fill="#e9e9e9" stroke="#8c8c8c" stroke-linejoin="round" stroke-width=".995"/><path d="m11 1-2.988 3.813-3.012-3.813c2 .062 4 .012 6 0z" fill="url(#a)"/></svg>

<svg xmlns="http://www.w3.org/2000/svg" xmlns:xlink="http://www.w3.org/1999/xlink" height="16" width="16"><defs><linearGradient id="a"><stop offset="0" stop-color="#9cde4a"/><stop offset="1" stop-color="#6fae20"/></linearGradient><linearGradient xlink:href="#a" id="b" x1="7.966" y1=".937" x2="8.197" y2="3.988" gradientUnits="userSpaceOnUse"/></defs><path d="M2.868 14.5c.008.36.03.914.342.99 3.3.02 6.28.003 9.58.01.34.015.353-.622.342-1H2.868z" fill="#505050" stroke="#565656" stroke-linecap="square"/><g stroke-linecap="round"><path d="M.647 6.556l.748-3.05 13.216.003.716 3.062z" fill="#4f4f4f" fill-rule="evenodd"/><path d="M1.225 6.517h13.55c.402 0 .725.348.725.78V13.5H.5V7.297c0-.432.323-.78.725-.78z" fill="#4f4f4f"/><path d="M1.225 6.517h13.55c.402 0 .725.348.725.78V13.5H.5V7.297c0-.432.323-.78.725-.78z" fill="none" stroke="#393939" stroke-linejoin="round" opacity=".71"/><path color="#000" overflow="visible" fill="#0cceff" d="M12 8h2v2h-2z"/><path d="M.647 6.556l.748-3.05 13.216.003.716 3.062z" opacity=".7" fill="none" stroke="#393939" stroke-linecap="butt"/></g><path d="M13 11v3.506c0 .274-.07.494-.156.494H3.156C3.07 15 3 14.78 3 14.506V11z" fill="#e9e9e9"/><path d="M3.483.498L12.51.5v4.856H3.483z" fill="#e9e9e9" stroke="#8c8c8c" stroke-width=".995" stroke-linejoin="round"/><path d="M11 1L8.012 4.813 5 1c2 .062 4 .012 6 0z" fill="url(#b)"/></svg>
